;Generated with Cura_SteamEngine 15.01
; Default start code
G28 ; Home extruder
G1 Z15 F100
M107 ; Turn off fan
G90 ; Absolute positioning
M82 ; Extruder in absolute mode
M190 S60
; Activate all used extruder
M104 T0 S210
G92 E0 ; Reset extruder position
; Wait for all used extruders to reach temperature
M109 T0 S210
;Layer count: 50
;LAYER:0
M107
G0 F9000 X62.313 Y65.300 Z0.300
;TYPE:SKIRT
G1 F1800 X62.819 Y64.826 E0.03459
G1 X63.440 Y64.390 E0.07245
G1 X64.063 Y64.071 E0.10737
G1 X64.416 Y63.399 E0.14524
G1 X64.850 Y62.787 E0.18267
G1 X65.334 Y62.283 E0.21753
G1 X66.426 Y61.309 E0.29053
G1 X67.502 Y60.401 E0.36077
G1 X68.602 Y59.523 E0.43099
G1 X69.808 Y58.613 E0.50636
G1 X70.397 Y58.248 E0.54093
G1 X71.087 Y57.943 E0.57857
G1 X71.765 Y57.749 E0.61375
G1 X72.235 Y57.165 E0.65115
G1 X72.857 Y56.577 E0.69386
G1 X74.596 Y55.516 E0.79549
G1 X75.851 Y54.822 E0.86704
G1 X77.103 Y54.175 E0.93735
G1 X78.460 Y53.520 E1.01252
G1 X79.102 Y53.278 E1.04675
G1 X79.828 Y53.113 E1.08390
G1 X80.551 Y53.053 E1.12009
G1 X81.123 Y52.574 E1.15731
G1 X81.766 Y52.168 E1.19525
G1 X82.410 Y51.887 E1.23031
G1 X83.824 Y51.393 E1.30503
G1 X83.909 Y51.369 E1.30944
G1 X85.128 Y50.979 E1.37329
G1 X86.483 Y50.588 E1.44365
G1 X87.933 Y50.214 E1.51836
G1 X88.594 Y50.100 E1.55182
G1 X89.368 Y50.078 E1.59045
G1 X90.082 Y50.162 E1.62632
G1 X90.739 Y49.800 E1.66374
G1 X91.544 Y49.495 E1.70669
G1 X93.554 Y49.180 E1.80820
G1 X94.978 Y49.020 E1.87969
G1 X96.381 Y48.901 E1.94993
G1 X97.889 Y48.815 E2.02529
G1 X98.579 Y48.838 E2.05973
G1 X99.329 Y48.968 E2.09771
G1 X99.994 Y49.184 E2.13259
G1 X100.715 Y48.958 E2.17029
G1 X101.448 Y48.835 E2.20737
G1 X102.118 Y48.815 E2.24081
G1 X103.618 Y48.901 E2.31577
G1 X105.021 Y49.020 E2.38602
G1 X106.420 Y49.177 E2.45625
G1 X107.910 Y49.387 E2.53132
G1 X108.580 Y49.541 E2.56562
G1 X109.303 Y49.819 E2.60427
G1 X109.907 Y50.160 E2.63887
G1 X110.639 Y50.078 E2.67562
G1 X111.413 Y50.100 E2.71425
G1 X112.100 Y50.222 E2.74906
G1 X113.516 Y50.588 E2.82203
G1 X114.832 Y50.968 E2.89036
G1 X114.900 Y50.987 E2.89389
G1 X116.213 Y51.407 E2.96266
G1 X117.630 Y51.901 E3.03753
G1 X118.264 Y52.186 E3.07221
G1 X118.908 Y52.596 E3.11030
G1 X119.445 Y53.052 E3.14544
G1 X120.187 Y53.116 E3.18260
G1 X120.928 Y53.285 E3.22052
G1 X121.580 Y53.539 E3.25543
G1 X122.896 Y54.175 E3.32835
G1 X124.148 Y54.822 E3.39866
G1 X125.381 Y55.503 E3.46893
G1 X126.678 Y56.267 E3.54403
G1 X127.243 Y56.671 E3.57868
G1 X127.795 Y57.199 E3.61679
G1 X128.228 Y57.747 E3.65164
G1 X128.932 Y57.949 E3.68818
G1 X129.628 Y58.261 E3.72623
G1 X130.197 Y58.618 E3.75974
G1 X131.397 Y59.523 E3.83473
G1 X132.497 Y60.401 E3.90494
G1 X133.573 Y61.309 E3.97519
G1 X134.699 Y62.313 E4.05045
G1 X135.173 Y62.819 E4.08504
G1 X135.609 Y63.440 E4.12290
G1 X135.928 Y64.063 E4.15782
G1 X136.600 Y64.416 E4.19569
G1 X137.212 Y64.850 E4.23312
G1 X137.716 Y65.334 E4.26798
G1 X138.690 Y66.426 E4.34098
G1 X139.598 Y67.502 E4.41122
G1 X140.476 Y68.602 E4.48144
G1 X141.386 Y69.808 E4.55681
G1 X141.751 Y70.397 E4.59138
G1 X142.056 Y71.087 E4.62902
G1 X142.250 Y71.765 E4.66421
G1 X142.834 Y72.235 E4.70160
G1 X143.422 Y72.857 E4.74431
G1 X144.483 Y74.596 E4.84594
G1 X145.177 Y75.851 E4.91749
G1 X145.824 Y77.103 E4.98780
G1 X146.479 Y78.460 E5.06297
G1 X146.721 Y79.102 E5.09720
G1 X146.886 Y79.828 E5.13435
G1 X146.946 Y80.551 E5.17054
G1 X147.425 Y81.123 E5.20776
G1 X147.831 Y81.766 E5.24570
G1 X148.112 Y82.410 E5.28076
G1 X148.606 Y83.824 E5.35548
G1 X148.630 Y83.909 E5.35989
G1 X149.020 Y85.128 E5.42374
G1 X149.411 Y86.483 E5.49410
G1 X149.785 Y87.933 E5.56881
G1 X149.899 Y88.594 E5.60227
G1 X149.921 Y89.368 E5.64090
G1 X149.837 Y90.082 E5.67677
G1 X150.199 Y90.739 E5.71420
G1 X150.504 Y91.544 E5.75714
G1 X150.819 Y93.554 E5.85865
G1 X150.979 Y94.978 E5.93014
G1 X151.098 Y96.381 E6.00038
G1 X151.184 Y97.889 E6.07574
G1 X151.161 Y98.577 E6.11008
G1 X151.031 Y99.329 E6.14816
G1 X150.815 Y99.994 E6.18304
G1 X151.041 Y100.715 E6.22074
G1 X151.164 Y101.448 E6.25782
G1 X151.184 Y102.118 E6.29126
G1 X151.098 Y103.618 E6.36622
G1 X150.979 Y105.021 E6.43647
G1 X150.822 Y106.420 E6.50670
G1 X150.612 Y107.910 E6.58177
G1 X150.458 Y108.580 E6.61607
G1 X150.180 Y109.303 E6.65471
G1 X149.839 Y109.907 E6.68932
G1 X149.921 Y110.639 E6.72607
G1 X149.899 Y111.413 E6.76470
G1 X149.777 Y112.100 E6.79951
G1 X149.411 Y113.516 E6.87247
G1 X149.031 Y114.832 E6.94081
G1 X149.012 Y114.900 E6.94434
G1 X148.592 Y116.213 E7.01311
G1 X148.098 Y117.630 E7.08798
G1 X147.813 Y118.264 E7.12266
G1 X147.403 Y118.908 E7.16075
G1 X146.947 Y119.445 E7.19589
G1 X146.883 Y120.187 E7.23305
G1 X146.714 Y120.928 E7.27097
G1 X146.460 Y121.580 E7.30588
G1 X145.824 Y122.896 E7.37880
G1 X145.177 Y124.148 E7.44911
G1 X144.496 Y125.381 E7.51938
G1 X143.732 Y126.678 E7.59448
G1 X143.328 Y127.243 E7.62913
G1 X142.800 Y127.795 E7.66724
G1 X142.252 Y128.228 E7.70209
G1 X142.050 Y128.932 E7.73863
G1 X141.738 Y129.628 E7.77668
G1 X141.381 Y130.197 E7.81019
G1 X140.476 Y131.397 E7.88518
G1 X139.598 Y132.497 E7.95539
G1 X138.690 Y133.573 E8.02564
G1 X137.686 Y134.699 E8.10090
G1 X137.180 Y135.173 E8.13549
G1 X136.559 Y135.609 E8.17335
G1 X135.936 Y135.928 E8.20827
G1 X135.583 Y136.600 E8.24614
G1 X135.149 Y137.212 E8.28357
G1 X134.665 Y137.716 E8.31843
G1 X133.573 Y138.690 E8.39143
G1 X132.497 Y139.598 E8.46167
G1 X131.397 Y140.476 E8.53189
G1 X130.191 Y141.386 E8.60726
G1 X129.602 Y141.751 E8.64183
G1 X128.912 Y142.056 E8.67947
G1 X128.234 Y142.250 E8.71465
G1 X127.764 Y142.834 E8.75205
G1 X127.142 Y143.422 E8.79476
G1 X125.403 Y144.483 E8.89639
G1 X124.148 Y145.177 E8.96794
G1 X122.896 Y145.824 E9.03825
G1 X121.539 Y146.479 E9.11342
G1 X120.897 Y146.721 E9.14765
G1 X120.171 Y146.886 E9.18480
G1 X119.448 Y146.946 E9.22099
G1 X118.876 Y147.425 E9.25821
G1 X118.233 Y147.831 E9.29615
G1 X117.589 Y148.112 E9.33121
G1 X116.175 Y148.606 E9.40593
G1 X116.090 Y148.630 E9.41034
G1 X114.871 Y149.020 E9.47419
G1 X113.516 Y149.411 E9.54455
G1 X112.066 Y149.785 E9.61926
G1 X111.405 Y149.899 E9.65272
G1 X110.631 Y149.921 E9.69135
G1 X109.917 Y149.837 E9.72722
G1 X109.260 Y150.199 E9.76464
G1 X108.455 Y150.504 E9.80759
G1 X106.445 Y150.819 E9.90910
G1 X105.021 Y150.979 E9.98059
G1 X103.618 Y151.098 E10.05083
G1 X102.110 Y151.184 E10.12619
G1 X101.422 Y151.161 E10.16053
G1 X100.670 Y151.031 E10.19861
G1 X100.005 Y150.815 E10.23349
G1 X99.285 Y151.041 E10.27114
G1 X98.553 Y151.164 E10.30817
G1 X97.881 Y151.184 E10.34171
G1 X96.381 Y151.098 E10.41667
G1 X94.978 Y150.979 E10.48692
G1 X93.579 Y150.822 E10.55715
G1 X92.089 Y150.612 E10.63222
G1 X91.419 Y150.458 E10.66652
G1 X90.696 Y150.180 E10.70517
G1 X90.092 Y149.839 E10.73977
G1 X89.360 Y149.921 E10.77652
G1 X88.586 Y149.899 E10.81515
G1 X87.899 Y149.777 E10.84996
G1 X86.483 Y149.411 E10.92293
G1 X85.167 Y149.031 E10.99126
G1 X85.099 Y149.012 E10.99479
G1 X83.786 Y148.592 E11.06356
G1 X82.369 Y148.098 E11.13843
G1 X81.735 Y147.813 E11.17311
G1 X81.091 Y147.403 E11.21120
G1 X80.554 Y146.947 E11.24634
G1 X79.812 Y146.883 E11.28350
G1 X79.071 Y146.714 E11.32142
G1 X78.419 Y146.460 E11.35633
G1 X77.103 Y145.824 E11.42925
G1 X75.851 Y145.177 E11.49956
G1 X74.618 Y144.496 E11.56983
G1 X73.321 Y143.732 E11.64493
G1 X72.756 Y143.328 E11.67958
G1 X72.204 Y142.800 E11.71769
G1 X71.771 Y142.252 E11.75254
G1 X71.067 Y142.050 E11.78908
G1 X70.371 Y141.738 E11.82713
G1 X69.802 Y141.381 E11.86064
G1 X68.602 Y140.476 E11.93563
G1 X67.502 Y139.598 E12.00585
G1 X66.426 Y138.690 E12.07609
G1 X65.300 Y137.686 E12.15135
G1 X64.826 Y137.180 E12.18594
G1 X64.390 Y136.559 E12.22380
G1 X64.071 Y135.936 E12.25872
G1 X63.399 Y135.583 E12.29659
G1 X62.787 Y135.149 E12.33402
G1 X62.283 Y134.665 E12.36888
G1 X61.309 Y133.573 E12.44188
G1 X60.401 Y132.497 E12.51212
G1 X59.523 Y131.397 E12.58234
G1 X58.613 Y130.191 E12.65772
G1 X58.248 Y129.602 E12.69229
G1 X57.943 Y128.912 E12.72992
G1 X57.749 Y128.234 E12.76511
G1 X57.165 Y127.764 E12.80251
G1 X56.577 Y127.142 E12.84521
G1 X55.516 Y125.403 E12.94684
G1 X54.822 Y124.148 E13.01839
G1 X54.175 Y122.896 E13.08870
G1 X53.520 Y121.539 E13.16387
G1 X53.278 Y120.897 E13.19810
G1 X53.113 Y120.171 E13.23525
G1 X53.053 Y119.448 E13.27144
G1 X52.574 Y118.876 E13.30866
G1 X52.168 Y118.233 E13.34660
G1 X51.887 Y117.589 E13.38166
G1 X51.393 Y116.175 E13.45638
G1 X51.369 Y116.090 E13.46079
G1 X50.979 Y114.871 E13.52464
G1 X50.588 Y113.516 E13.59500
G1 X50.214 Y112.066 E13.66971
G1 X50.100 Y111.405 E13.70317
G1 X50.078 Y110.631 E13.74181
G1 X50.162 Y109.917 E13.77767
G1 X49.800 Y109.260 E13.81510
G1 X49.495 Y108.455 E13.85804
G1 X49.180 Y106.445 E13.95955
G1 X49.020 Y105.021 E14.03104
G1 X48.901 Y103.618 E14.10129
G1 X48.815 Y102.110 E14.17664
G1 X48.838 Y101.422 E14.21099
G1 X48.968 Y100.670 E14.24906
G1 X49.184 Y100.005 E14.28394
G1 X48.958 Y99.284 E14.32164
G1 X48.835 Y98.551 E14.35872
G1 X48.815 Y97.881 E14.39216
G1 X48.901 Y96.381 E14.46712
G1 X49.020 Y94.978 E14.53737
G1 X49.177 Y93.579 E14.60760
G1 X49.387 Y92.089 E14.68267
G1 X49.541 Y91.419 E14.71697
G1 X49.819 Y90.696 E14.75562
G1 X50.160 Y90.092 E14.79022
G1 X50.078 Y89.360 E14.82697
G1 X50.100 Y88.586 E14.86560
G1 X50.222 Y87.899 E14.90041
G1 X50.588 Y86.483 E14.97338
G1 X50.968 Y85.167 E15.04171
G1 X50.987 Y85.099 E15.04524
G1 X51.407 Y83.786 E15.11401
G1 X51.901 Y82.369 E15.18888
G1 X52.186 Y81.735 E15.22356
G1 X52.596 Y81.091 E15.26165
G1 X53.052 Y80.554 E15.29679
G1 X53.116 Y79.812 E15.33395
G1 X53.285 Y79.071 E15.37187
G1 X53.539 Y78.419 E15.40678
G1 X54.175 Y77.103 E15.47970
G1 X54.822 Y75.851 E15.55001
G1 X55.503 Y74.618 E15.62028
G1 X56.267 Y73.321 E15.69538
G1 X56.671 Y72.756 E15.73003
G1 X57.199 Y72.204 E15.76814
G1 X57.747 Y71.771 E15.80299
G1 X57.949 Y71.067 E15.83953
G1 X58.261 Y70.371 E15.87758
G1 X58.618 Y69.802 E15.91109
G1 X59.523 Y68.602 E15.98608
G1 X60.401 Y67.502 E16.05630
G1 X61.309 Y66.426 E16.12654
G1 X62.313 Y65.300 E16.20180
G1 F2400 E12.20180
G0 F9000 X65.036 Y67.956
;TYPE:WALL-INNER
G1 F2400 E16.20180
G1 F1800 X65.221 Y67.783 E16.21444
G1 X65.407 Y67.652 E16.22579
G1 X65.610 Y67.549 E16.23714
G1 X65.832 Y67.474 E16.24884
G1 X66.042 Y67.432 E16.25952
G1 X66.266 Y67.420 E16.27071
G1 X66.818 Y67.468 E16.29835
G1 X67.468 Y66.818 E16.34422
G1 X67.420 Y66.268 E16.37176
G1 X67.433 Y66.036 E16.38335
G1 X67.481 Y65.805 E16.39512
G1 X67.554 Y65.596 E16.40617
G1 X67.662 Y65.390 E16.41777
G1 X67.786 Y65.216 E16.42843
G1 X67.972 Y65.021 E16.44188
G1 X68.910 Y64.185 E16.50456
G1 X69.919 Y63.334 E16.57042
G1 X70.925 Y62.530 E16.63466
G1 X71.956 Y61.752 E16.69910
G1 X72.172 Y61.618 E16.71178
G1 X72.386 Y61.524 E16.72345
G1 X72.596 Y61.464 E16.73434
G1 X72.819 Y61.432 E16.74558
G1 X73.054 Y61.434 E16.75731
G1 X73.307 Y61.475 E16.77009
G1 X73.801 Y61.619 E16.79576
G1 X74.565 Y61.110 E16.84156
G1 X74.629 Y60.552 E16.86959
G1 X74.686 Y60.331 E16.88097
G1 X74.773 Y60.124 E16.89217
G1 X74.889 Y59.929 E16.90349
G1 X75.036 Y59.745 E16.91524
G1 X75.176 Y59.613 E16.92484
G1 X76.512 Y58.798 E17.00292
G1 X77.650 Y58.169 E17.06779
G1 X78.794 Y57.578 E17.13203
G1 X79.953 Y57.018 E17.19625
G1 X80.201 Y56.925 E17.20946
G1 X80.410 Y56.878 E17.22015
G1 X80.637 Y56.859 E17.23152
G1 X80.874 Y56.873 E17.24336
G1 X81.099 Y56.920 E17.25483
G1 X81.332 Y57.006 E17.26722
G1 X81.793 Y57.247 E17.29317
G1 X82.641 Y56.894 E17.33900
G1 X82.811 Y56.362 E17.36686
G1 X82.910 Y56.158 E17.37817
G1 X83.033 Y55.973 E17.38926
G1 X83.189 Y55.800 E17.40088
G1 X83.369 Y55.649 E17.41260
G1 X83.546 Y55.537 E17.42305
G1 X83.807 Y55.424 E17.43724
G1 X84.976 Y55.016 E17.49901
G1 X86.224 Y54.618 E17.56437
G1 X87.493 Y54.252 E17.63026
G1 X88.735 Y53.931 E17.69426
G1 X88.969 Y53.891 E17.70610
G1 X89.200 Y53.884 E17.71763
G1 X89.435 Y53.912 E17.72944
G1 X89.659 Y53.971 E17.74099
G1 X89.861 Y54.057 E17.75195
G1 X90.054 Y54.172 E17.76315
G1 X90.483 Y54.516 E17.79059
G1 X91.384 Y54.337 E17.83642
G1 X91.653 Y53.850 E17.86418
G1 X91.796 Y53.662 E17.87596
G1 X91.953 Y53.505 E17.88704
G1 X92.137 Y53.369 E17.89845
G1 X92.336 Y53.259 E17.90980
G1 X92.522 Y53.188 E17.91973
G1 X94.071 Y52.945 E17.99795
G1 X95.343 Y52.803 E18.06181
G1 X96.658 Y52.691 E18.12765
G1 X97.929 Y52.619 E18.19116
G1 X98.194 Y52.628 E18.20439
G1 X98.408 Y52.665 E18.21523
G1 X98.632 Y52.738 E18.22698
G1 X98.836 Y52.838 E18.23832
G1 X99.011 Y52.956 E18.24885
G1 X99.210 Y53.140 E18.26237
G1 X99.539 Y53.533 E18.28794
G1 X100.460 Y53.533 E18.33389
G1 X100.810 Y53.114 E18.36112
G1 X100.992 Y52.954 E18.37321
G1 X101.170 Y52.834 E18.38392
G1 X101.389 Y52.729 E18.39604
G1 X101.599 Y52.663 E18.40702
G1 X101.821 Y52.626 E18.41825
G1 X102.068 Y52.619 E18.43058
G1 X103.341 Y52.691 E18.49419
G1 X104.656 Y52.803 E18.56003
G1 X105.938 Y52.946 E18.62439
G1 X107.211 Y53.126 E18.68853
G1 X107.470 Y53.185 E18.70178
G1 X107.676 Y53.264 E18.71279
G1 X107.874 Y53.377 E18.72417
G1 X108.060 Y53.518 E18.73581
G1 X108.215 Y53.675 E18.74682
G1 X108.349 Y53.853 E18.75793
G1 X108.613 Y54.337 E18.78544
G1 X109.514 Y54.516 E18.83127
G1 X109.952 Y54.168 E18.85918
G1 X110.150 Y54.052 E18.87063
G1 X110.358 Y53.966 E18.88185
G1 X110.577 Y53.909 E18.89314
G1 X110.795 Y53.884 E18.90409
G1 X111.025 Y53.891 E18.91557
G1 X111.294 Y53.938 E18.92920
G1 X112.506 Y54.252 E18.99166
G1 X113.775 Y54.618 E19.05755
G1 X115.017 Y55.014 E19.12259
G1 X116.221 Y55.434 E19.18621
G1 X116.456 Y55.539 E19.19905
G1 X116.645 Y55.660 E19.21024
G1 X116.814 Y55.803 E19.22129
G1 X116.971 Y55.982 E19.23317
G1 X117.089 Y56.158 E19.24374
G1 X117.203 Y56.408 E19.25745
G1 X117.357 Y56.894 E19.28288
G1 X118.204 Y57.246 E19.32864
G1 X118.701 Y56.990 E19.35653
G1 X118.913 Y56.915 E19.36775
G1 X119.129 Y56.872 E19.37874
G1 X119.358 Y56.859 E19.39018
G1 X119.600 Y56.880 E19.40230
G1 X119.808 Y56.927 E19.41294
G1 X120.062 Y57.026 E19.42654
G1 X121.191 Y57.571 E19.48909
G1 X122.349 Y58.169 E19.55411
G1 X123.491 Y58.800 E19.61920
G1 X124.603 Y59.454 E19.68356
G1 X124.809 Y59.602 E19.69622
G1 X124.978 Y59.763 E19.70786
G1 X125.117 Y59.940 E19.71909
G1 X125.233 Y60.140 E19.73063
G1 X125.317 Y60.345 E19.74168
G1 X125.373 Y60.567 E19.75310
G1 X125.432 Y61.109 E19.78030
G1 X126.197 Y61.619 E19.82617
G1 X126.722 Y61.466 E19.85345
G1 X126.953 Y61.433 E19.86509
G1 X127.175 Y61.432 E19.87617
G1 X127.416 Y61.467 E19.88832
G1 X127.627 Y61.528 E19.89928
G1 X127.832 Y61.620 E19.91049
G1 X128.041 Y61.751 E19.92279
G1 X129.061 Y62.520 E19.98652
G1 X130.080 Y63.334 E20.05159
G1 X131.089 Y64.185 E20.11744
G1 X132.041 Y65.034 E20.18108
G1 X132.216 Y65.221 E20.19386
G1 X132.347 Y65.407 E20.20521
G1 X132.450 Y65.610 E20.21657
G1 X132.524 Y65.827 E20.22801
G1 X132.567 Y66.042 E20.23894
G1 X132.579 Y66.266 E20.25014
G1 X132.531 Y66.818 E20.27778
G1 X133.181 Y67.468 E20.32364
G1 X133.731 Y67.420 E20.35118
G1 X133.963 Y67.433 E20.36278
G1 X134.194 Y67.481 E20.37455
G1 X134.403 Y67.554 E20.38559
G1 X134.609 Y67.662 E20.39720
G1 X134.783 Y67.786 E20.40786
G1 X134.978 Y67.972 E20.42130
G1 X135.814 Y68.910 E20.48399
G1 X136.665 Y69.919 E20.54984
G1 X137.475 Y70.934 E20.61463
G1 X138.246 Y71.955 E20.67846
G1 X138.381 Y72.172 E20.69121
G1 X138.475 Y72.386 E20.70287
G1 X138.535 Y72.596 E20.71376
G1 X138.567 Y72.819 E20.72500
G1 X138.565 Y73.054 E20.73673
G1 X138.524 Y73.307 E20.74951
G1 X138.380 Y73.801 E20.77519
G1 X138.889 Y74.565 E20.82099
G1 X139.447 Y74.629 E20.84901
G1 X139.668 Y74.686 E20.86039
G1 X139.875 Y74.773 E20.87160
G1 X140.070 Y74.889 E20.88292
G1 X140.254 Y75.036 E20.89467
G1 X140.386 Y75.176 E20.90427
G1 X141.204 Y76.517 E20.98263
G1 X141.822 Y77.635 E21.04637
G1 X142.421 Y78.794 E21.11145
G1 X142.981 Y79.953 E21.17567
G1 X143.074 Y80.201 E21.18889
G1 X143.121 Y80.410 E21.19957
G1 X143.140 Y80.637 E21.21094
G1 X143.126 Y80.874 E21.22278
G1 X143.079 Y81.099 E21.23425
G1 X142.993 Y81.332 E21.24664
G1 X142.752 Y81.793 E21.27259
G1 X143.105 Y82.641 E21.31842
G1 X143.637 Y82.811 E21.34628
G1 X143.841 Y82.910 E21.35760
G1 X144.026 Y83.033 E21.36868
G1 X144.199 Y83.189 E21.38030
G1 X144.350 Y83.369 E21.39202
G1 X144.462 Y83.546 E21.40247
G1 X144.981 Y84.968 E21.47800
G1 X145.381 Y86.224 E21.54376
G1 X145.747 Y87.493 E21.60965
G1 X146.067 Y88.730 E21.67340
G1 X146.108 Y88.969 E21.68549
